images_sukapura_svg/cmd/sc_changecasetoupper.svg

<svg viewBox="0 0 16 16" xmlns="http://www.w3.org/2000/svg" xmlns:xlink="http://www.w3.org/1999/xlink"><linearGradient id="a" gradientTransform="matrix(1 0 0 -1 -6.999312 11.999745)" gradientUnits="userSpaceOnUse" x1="19.499311" x2="19.499311" y1="7.999745" y2="11.999745"><stop offset="0" stop-color="#0040dd"/><stop offset="1" stop-color="#0a84ff"/></linearGradient><path d="m9.5006882 3.9997451a.50043556.50043556 0 0 1 -.353516-.8535156l2.9999998-3.00000036a.50043556.50043556 0 0 1 .707032 0l3 3.00000036a.50043556.50043556 0 0 1 -.353516.8535156z" fill="url(#a)"/><g fill="#4b4b4f"><path d="m9 15.999092v-9.999092h3.262067q1.565792 0 2.4517.6798833.885909.6730158.885909 2.025915 0 .6661483-.425785 1.1949464-.425786.5219303-1.119404.7760283.906511.19229 1.421574.885909.521931.693618.521931 1.613864 0 1.373502-.892777 2.101458-.885908.721088-2.410495.721088zm1.3529-4.690508v3.632912h2.34182q.920246 0 1.435309-.453256.515063-.460123.515063-1.297959 0-.879041-.432653-1.380369-.425785-.501328-1.318561-.501328zm0-1.057597h2.190735q.755426 0 1.229284-.4120498.473858-.4189181.473858-1.160609 0-.810366-.515063-1.2086814-.508196-.405183-1.469647-.405183h-1.909167z"/><path d="m5.9021295 13.424684h-3.793782l-.8582655 2.575316h-1.25008226l3.50147426-9.9990922h1.0510642l3.4455005 9.9990922h-1.2500823zm-3.4144038-1.133139h3.0474642l-1.4926355-4.5531576h-.037316z"/></g></svg>

<?xml version="1.0" encoding="UTF-8" standalone="no"?>
<svg
   xmlns:dc="http://purl.org/dc/elements/1.1/"
   xmlns:cc="http://creativecommons.org/ns#"
   xmlns:rdf="http://www.w3.org/1999/02/22-rdf-syntax-ns#"
   xmlns:svg="http://www.w3.org/2000/svg"
   xmlns="http://www.w3.org/2000/svg"
   xmlns:xlink="http://www.w3.org/1999/xlink"
   xmlns:sodipodi="http://sodipodi.sourceforge.net/DTD/sodipodi-0.dtd"
   xmlns:inkscape="http://www.inkscape.org/namespaces/inkscape"
   viewBox="0 0 16 16"
   version="1.1"
   id="svg8"
   sodipodi:docname="sc_changecasetoupper.svg"
   inkscape:version="0.92.3 (2405546, 2018-03-11)">
  <metadata
     id="metadata14">
    <rdf:RDF>
      <cc:Work
         rdf:about="">
        <dc:format>image/svg+xml</dc:format>
        <dc:type
           rdf:resource="http://purl.org/dc/dcmitype/StillImage" />
        <dc:title></dc:title>
      </cc:Work>
    </rdf:RDF>
  </metadata>
  <defs
     id="defs12">
    <linearGradient
       inkscape:collect="always"
       xlink:href="#a-6"
       id="linearGradient859"
       x1="19.499311"
       y1="7.9997449"
       x2="19.499311"
       y2="11.999745"
       gradientUnits="userSpaceOnUse"
       gradientTransform="matrix(1,0,0,-1,-6.9993116,11.999745)" />
    <linearGradient
       gradientTransform="translate(-29.694915,1.220339)"
       id="a-6"
       gradientUnits="userSpaceOnUse"
       x1="14"
       x2="13.79661"
       y1="22"
       y2="2.1355929">
      <stop
         offset="0"
         stop-color="#0040dd"
         id="stop2" />
      <stop
         offset="1"
         stop-color="#0a84ff"
         id="stop4" />
    </linearGradient>
  </defs>
  <sodipodi:namedview
     pagecolor="#ffffff"
     bordercolor="#666666"
     borderopacity="1"
     objecttolerance="10"
     gridtolerance="10"
     guidetolerance="10"
     inkscape:pageopacity="0"
     inkscape:pageshadow="2"
     inkscape:window-width="1366"
     inkscape:window-height="716"
     id="namedview10"
     showgrid="true"
     inkscape:snap-global="true"
     inkscape:zoom="20.85965"
     inkscape:cx="3.9683241"
     inkscape:cy="4.9745733"
     inkscape:window-x="-8"
     inkscape:window-y="-8"
     inkscape:window-maximized="1"
     inkscape:current-layer="svg8">
    <inkscape:grid
       type="xygrid"
       id="grid821" />
  </sodipodi:namedview>
  <path
     style="fill:url(#linearGradient859);fill-opacity:1;stroke:none;stroke-width:1px;stroke-linecap:butt;stroke-linejoin:miter;stroke-opacity:1"
     d="M 9.5006882,3.9997451 A 0.50043556,0.50043556 0 0 1 9.1471722,3.1462295 L 12.147172,0.14622914 a 0.50043556,0.50043556 0 0 1 0.707032,0 l 3,3.00000036 a 0.50043556,0.50043556 0 0 1 -0.353516,0.8535156 z"
     id="path834-2"
     inkscape:connector-curvature="0" />
  <path
     inkscape:connector-curvature="0"
     id="path829"
     style="font-style:normal;font-variant:normal;font-weight:normal;font-stretch:normal;font-size:medium;line-height:1.25;font-family:Roboto;-inkscape-font-specification:Roboto;letter-spacing:0px;word-spacing:0px;fill:#4b4b4f;fill-opacity:1;stroke:none;stroke-width:0.35161644"
     d="M 9,15.999092 V 6 h 3.262067 q 1.565792,0 2.4517,0.6798833 0.885909,0.6730158 0.885909,2.025915 0,0.6661483 -0.425785,1.1949464 -0.425786,0.5219303 -1.119404,0.7760283 0.906511,0.19229 1.421574,0.885909 0.521931,0.693618 0.521931,1.613864 0,1.373502 -0.892777,2.101458 -0.885908,0.721088 -2.410495,0.721088 z m 1.3529,-4.690508 v 3.632912 h 2.34182 q 0.920246,0 1.435309,-0.453256 0.515063,-0.460123 0.515063,-1.297959 0,-0.879041 -0.432653,-1.380369 -0.425785,-0.501328 -1.318561,-0.501328 z m 0,-1.057597 h 2.190735 q 0.755426,0 1.229284,-0.4120498 0.473858,-0.4189181 0.473858,-1.160609 0,-0.810366 -0.515063,-1.2086814 -0.508196,-0.405183 -1.469647,-0.405183 H 10.3529 Z" />
  <path
     inkscape:connector-curvature="0"
     id="path827"
     style="font-style:normal;font-variant:normal;font-weight:normal;font-stretch:normal;font-size:medium;line-height:1.25;font-family:Roboto;-inkscape-font-specification:Roboto;letter-spacing:0px;word-spacing:0px;fill:#4b4b4f;fill-opacity:1;stroke:none;stroke-width:0.33461148"
     d="M 5.9021295,13.424684 H 2.1083475 L 1.250082,16 H -2.5704503e-7 L 3.501474,6.0009078 H 4.5525382 L 7.9980387,16 H 6.7479564 Z M 2.4877257,12.291545 H 5.5351899 L 4.0425544,7.7383874 h -0.037316 z" />
</svg>
